X:130
T:Lady Nelson’s Waltz. WM.130
M:3/8
L:1/16
Q:3/8=50
S:Wm.Mittell’s MS, New Romney,Kent,1799
R:.Waltz
O:England
A:Kent
Z:vmp.Chris Partington
K:CDor
b2|f2d2B2|B2A2B2|c2A2F2|F4cd|edcBAB|cBAGFE|D2B2B2|B4:|!
|:f2|=efgfef|_e4d2|d2c2B2|B2A2f2|!
=efgfef|_e4d2|c2B2A2|B4:|!
|:F2|DFBFDF|EGBGEF|GcecAc|BdfdBd|!
DFBFDF|EGBGEG|AcecAc|B4:|

